X: 1
T:Sruleen Park
M:C
L:1/8
Q:80
C:Composed by T. Tully
S:March
K:HP
{g}e3/2d/2{gcd}c2{g}d{e}B{G}A3{g}e|
{ag}a2c3/2d/2{gef}e3c|
{Gdc}d3/2e/2{g}dc{gBd}B2{g}c3/2d/2|  !
{g}e3/2f/2{g}ed{gcd}c2{g}e3/2d/2{gcd}c2{g}d{e}B{G}A3{g}e|
{ag}a2c3/2d/2{gef}e2{g}f3/2g/2|
{ag}a2ec{Gdc}d2{gcd}c{e}B|  !
{G}A4{GAG}A2|]
{g}c3/2d/2|
{g}e3/2f/2{g}ed{gcd}c2{g}A{d}c|  !
{g}f3/2g/2{a}fe{gcd}c3e|
{Gdc}d3/2e/2{g}dc{gBd}B2{g}c3/2d/2|
{g}e3/2f/2{g}ed{gcd}c3{g}e{ag}a2e2{gcd}c2{e}A2|  !
{g}f3/2g/2{a}fe{gcd}c2{g}f3/2g/2|
{ag}a2ec{Gdc}d2{gcd}c{e}B|
{G}A4{GAG}A2|]  !
